{ "compressionlevel":-1,
 "height":4,
 "infinite":false,
 "layers":[
        {
         "data":[0, 0, 0, 0, 0, 0, 0, 0, 0, 2, 2, 0, 1, 1, 1, 1],
         "height":4,
         "id":1,
         "name":"Terrain",
         "opacity":1,
         "type":"tilelayer",
         "visible":true,
         "width":4,
         "x":0,
         "y":0
        },
        {
         "draworder":"topdown",
         "id":2,
         "name":"Things",
         "objects":[
                {
                 "height":0,
                 "id":1,
                 "name":"",
                 "opacity":1,
                 "point":true,
                 "rotation":0,
                 "type":"player",
                 "visible":true,
                 "width":0,
                 "x":16,
                 "y":40
                }],
         "opacity":1,
         "type":"objectgroup",
         "visible":true,
         "x":0,
         "y":0
        }],
 "nextlayerid":3,
 "nextobjectid":2,
 "orientation":"orthogonal",
 "renderorder":"right-down",
 "tiledversion":"1.12.2",
 "tileheight":16,
 "tilesets":[
        {
         "firstgid":1,
         "source":"tiles.tsj"
        }],
 "tilewidth":16,
 "type":"map",
 "version":"1.10",
 "width":4
}
